X: 39659
T: Tempus Fugit
R: waltz
M: 3/4
K: Eminor
b3 g eB|eg f3 g|e3 f gB|c_e fa c'e'|b3 g eB|e2 ge ag|b2 g2 e2|d3 c Bc|
b3 g eB|eg f3 g|e^d e g2 c|(3ccc cf c'd'|b3 g eB|e2 ge ag|b2 g3 e|dB ce af|
gd gg fe|g3 g fe|f3 g f_B|B_e fa gf|e2 Ge Ge|e2 Ge Ge|dB df dB|fB df dB|
g3 g fe|g3 g fe|f3 g f2|B_e fa gf|e2 Ge Ae|Ge (3eee ge|fd (3ddd fd|ge ed e/f/g|
bg eB (3efg|bg eB (3efg|d'a fd (3fga|d'c' c'b ba|bg eB eg|bg eB eg|a2 f2 d2-|de da bc'|
bg eB eg|bg eB eg|d'3 c' c'd'|d'c' c'b ba|bg eB eg|bg eB eg|a2 f2 d2|c3 c BA|
G2 B2 f2|e3 d c2|Be GB cd|a3 g fd|c2 e2 b2|g3 e c2|Be G/A/G cd|a3 g fd|
g2 b2 f'2|e'3 d' d'c'|be gb c'd'|a3 g fd|c'2 e'2 b'2|g'4 e'c'|be g/a/g c'd'|a3 g a/b/c'||

